X: 16951
T: Hawk, The
R: jig
M: 6/8
K: Fmajor
|:CFA B,DG|cdB A2a|gfe d=BG|=Bcd ~c2_B|
AFA GE/F/G|~F3 EFG|~c3 BCE|GFE F2C:|
|:FAc agf|e/f/gc BGE|FAc c'eg|=bda g2f|
ece d=B/c/d|~c3 GEC|~c3 BCE|GFE F2C:|

